home/.icons/Gruvbox-Plus-Dark/apps/scalable/css.svg

<svg xmlns="http://www.w3.org/2000/svg" style="isolation:isolate" width="256" height="256" viewBox="0 0 256 256">
 <g filter="url(#hp0mHgjRUMjSACA3VGzWFyh4L4s2IYKk)">
  <linearGradient id="_lgradient_29" x1=".187" x2=".19" y1=".005" y2=".999" gradientTransform="matrix(244.648309,0,0,228.338396,5.68,11.95)" gradientUnits="userSpaceOnUse">
   <stop offset="0%" style="stop-color:#83a598"/>
   <stop offset="100%" style="stop-color:#458588"/>
  </linearGradient>
  <path fill="url(#_lgradient_29)" d="M 165.688919 11.95 C 239.744626 11.95 250.328309 22.507198 250.328309 96.493859 L 250.328309 155.744653 C 250.328309 229.73091 239.744626 240.288396 165.688919 240.288396 L 90.319393 240.288396 C 16.26369 240.288396 5.68 229.73091 5.68 155.744653 L 5.68 96.493859 C 5.68 22.507198 16.26369 11.95 90.319393 11.95 L 165.688919 11.95 Z"/>
 </g>
 <g>
  <g opacity=".4" filter="url(#XkSQ38bf4QqoeV2KRx4HkzlgyETno1xA)">
   <path d="M 127.242186 58 L 127.181493 58.040445 C 87.401194 58.481647 55.501451 90.610794 55.501451 130.497254 C 55.501451 170.661278 87.835665 202.995494 127.999689 202.995494 C 167.555764 202.995494 199.446702 171.61463 200.404714 132.299353 C 200.404714 132.299353 200.467375 131.060515 200.495754 130.499015 L 200.495754 73.536115 C 200.495754 64.929537 193.566993 58.000777 184.960415 58.000777 L 127.997514 58.000777 L 127.242186 58 Z"/>
  </g>
  <linearGradient id="_lgradient_30" x1="0" x2="0" y1="0" y2="1" gradientTransform="matrix(144.994302,0,0,144.995491,55.501451,54.207182)" gradientUnits="userSpaceOnUse">
   <stop offset="0%" style="stop-color:#2b2e30"/>
   <stop offset="100%" style="stop-color:#1e1f1f"/>
  </linearGradient>
  <path fill="url(#_lgradient_30)" d="M 127.242186 54.207182 L 127.181494 54.247626 C 87.401194 54.68883 55.501451 86.817975 55.501451 126.704431 C 55.501451 166.868456 87.835664 199.202673 127.999689 199.202673 C 167.555768 199.202673 199.4467 167.821807 200.404713 128.506532 C 200.404713 128.506532 200.467375 127.267697 200.495753 126.706199 L 200.495753 69.743296 C 200.495753 61.136718 193.566995 54.207959 184.960414 54.207959 L 127.997516 54.207959 L 127.242186 54.207182 Z"/>
  <g opacity=".2">
   <path fill="#ebdbb2" d="M 127.24142 54.20859 L 127.180734 54.249047 C 87.400435 54.69025 55.5 86.817072 55.5 126.703532 C 55.5 126.995806 55.528947 127.280355 55.545515 127.568312 C 56.452125 88.486781 87.977188 57.273139 127.180734 56.838333 L 127.24142 56.797875 L 127.246476 56.792818 L 184.964286 56.792818 C 193.570864 56.792818 200.5 63.721955 200.5 72.328532 L 200.5 69.739247 C 200.5 61.132669 193.570864 54.20859 184.964286 54.20859 L 127.246476 54.20859 L 127.24142 54.20859 Z"/>
  </g>
  <linearGradient id="_lgradient_31" x1=".187" x2=".19" y1=".005" y2=".999" gradientTransform="matrix(103.571429,0,0,103.571429,76.211696,74.920407)" gradientUnits="userSpaceOnUse">
   <stop offset="0%" style="stop-color:#83a598"/>
   <stop offset="100%" style="stop-color:#458588"/>
  </linearGradient>
  <circle fill="url(#_lgradient_31)" cx="127.997" cy="126.706" r="51.786" vector-effect="non-scaling-stroke"/>
  <linearGradient id="_lgradient_32" x1="0" x2="0" y1="0" y2="1" gradientTransform="matrix(51.78138,0,0,72.498589,102.110423,90.461968)" gradientUnits="userSpaceOnUse">
   <stop offset="0%" style="stop-color:#2b2e30"/>
   <stop offset="100%" style="stop-color:#1e1f1f"/>
  </linearGradient>
  <path fill="url(#_lgradient_32)" fill-rule="evenodd" d="M 135.118602 104.241324 C 134.870237 107.163208 132.919109 105.922971 130.806615 107.517259 C 130.236726 107.43 129.586727 107.43 128.694118 107.43 C 128.532805 105.48161 129.183897 105.127561 129.505478 104.773665 C 130.806615 103.710323 131.70497 104.242616 131.70497 104.242616 C 132.678829 104.06323 133.570299 104.329875 135.11855 104.241212 L 135.118602 104.241324 Z M 139.99359 99.458149 L 137.151038 99.458149 L 137.151038 98.661599 L 135.608432 98.661599 L 135.608432 99.102907 C 135.441372 99.190166 135.280015 99.36965 135.118653 99.456958 L 134.957341 99.456958 C 132.267966 97.154516 132.107951 101.849139 130.316986 100.785797 C 130.155674 99.810955 130.236822 98.924666 130.236822 97.774015 C 133.327732 97.684167 132.187957 96.799224 131.296487 95.648624 C 130.974957 95.204833 130.806711 94.496782 130.726598 94.054232 C 129.996438 91.13618 126.98776 89.36515 122.601619 91.224731 C 119.752229 92.375329 120.489122 96.538851 120.730593 99.372498 C 120.569281 99.636805 120.240817 99.549553 119.999345 99.549553 C 116.908435 99.726661 115.527033 103.266745 114.875998 106.101839 C 115.037311 108.670918 114.714686 111.504513 114.306112 113.982398 C 113.89753 116.461838 113.086224 118.410333 113.004975 120.800857 C 112.843663 122.926246 113.574861 125.405687 113.413554 127.354181 C 111.703838 132.845404 110.482708 136.475494 109.591344 142.320923 C 108.941345 143.648522 106.66754 146.482063 105.769133 147.102909 C 105.527708 147.544214 105.930446 148.520248 105.527708 149.138606 C 104.79646 150.289207 103.656683 150.909998 103.006635 152.15039 C 103.167947 152.414699 102.028219 152.68144 102.115164 153.125181 C 102.195329 153.566489 102.765163 154.717087 103.006635 154.98383 C 103.086799 155.160937 103.898103 154.717087 103.898103 154.98383 C 104.22652 156.044686 104.95782 158.259766 105.769128 158.790919 C 109.349815 159.232175 109.349815 159.232175 110.811224 158.790919 C 111.622584 156.22184 108.048678 157.373578 108.370208 153.919297 C 113.252032 152.858441 114.793553 151.351409 116.744792 145.773083 C 117.63626 141.699199 118.857287 137.715423 120.727274 133.818641 C 121.048804 133.554335 120.968751 132.845093 121.538634 132.578301 C 123.731239 136.562336 127.720663 139.398314 129.666203 143.560748 C 130.155982 148.961866 131.134398 151.884064 132.837381 152.858648 C 133.24596 153.035703 132.837381 154.717294 133.16585 155.071294 C 133.16585 155.602343 133.327163 156.221892 133.085686 156.842632 C 132.918625 157.286425 133.005573 157.817423 133.005573 158.259973 L 133.005573 158.791023 C 133.085686 159.591298 133.24705 159.591298 133.978293 160.208364 C 136.090788 161.712959 138.940382 164.105143 141.782729 162.333753 C 143.083863 160.028826 140.32137 157.109219 138.37034 155.603327 C 137.720342 155.072278 136.580564 153.744678 136.740735 152.858286 C 137.800452 151.706442 138.530508 146.659168 138.121981 142.762386 C 137.960669 141.878583 137.800452 140.990996 137.471983 140.282948 C 136.499263 138.247301 134.30671 135.412515 132.436669 133.376971 C 132.678145 133.112665 133.006557 132.756179 133.409388 132.579181 C 133.409388 130.632033 132.67814 130.011293 131.70656 128.595195 C 130.888366 127.177856 129.02428 124.434055 127.636042 123.547869 C 127.636042 123.547869 127.636042 123.458021 126.254796 123.458021 C 126.174631 122.484475 126.421856 121.686683 126.663377 120.624532 C 126.663377 119.827985 127.233263 120.271723 127.394625 118.499142 C 127.803204 116.994545 127.636102 117.879594 127.964511 116.374944 C 128.286041 115.666896 128.45429 114.957603 128.45429 113.805865 C 129.668479 114.249659 132.1082 114.159916 133.167813 113.805865 L 133.40929 113.982972 C 133.737707 114.072821 133.817817 113.541668 134.059288 113.453166 C 135.930314 112.388581 136.580362 110.530038 138.12297 110.352934 C 138.12297 110.352934 138.941164 109.909143 140.154216 110.352934 C 140.643992 110.352934 141.052574 110.440193 141.052574 109.909143 C 141.132738 109.112593 141.132738 108.494287 141.54235 107.960752 C 141.86388 110.086141 142.756541 112.478326 144.384902 114.780765 L 146.008966 113.54348 C 144.466358 111.507833 143.494728 109.205443 143.326686 106.547398 C 143.406747 106.724454 143.493799 106.901398 143.655155 107.078448 C 144.225044 107.078448 144.546626 105.749557 145.197764 105.838056 C 145.277876 105.661 145.446128 104.863265 145.606291 104.243716 L 151.701322 104.243716 L 153.891803 103.715515 L 153.891803 102.475172 L 152.269085 102.298116 L 152.269085 100.880775 L 151.860558 100.880775 L 151.860558 99.286435 L 150.887838 99.286435 L 150.887838 100.792276 L 148.366765 100.615221 L 148.366765 99.64043 L 147.394045 99.64043 L 147.394045 100.525478 L 144.792963 100.261169 L 144.792963 98.93233 L 143.814549 98.93233 L 143.814549 100.17267 L 139.992336 99.908361 L 139.992336 99.468351 L 139.995185 99.468351 L 139.99359 99.458149 Z"/>
 </g>
</svg>

<svg width="256" height="256" version="1.1" xmlns="http://www.w3.org/2000/svg" xmlns:xlink="http://www.w3.org/1999/xlink">
  <defs>
    <linearGradient id="linearGradient31" x1=".5002" x2=".5002" y2="1" gradientTransform="matrix(244,0,0,228,5.986,12)" gradientUnits="userSpaceOnUse">
      <stop stop-color="#fbf1c7" stop-opacity=".3" offset="0"/>
      <stop stop-color="#ebdbb2" stop-opacity=".05" offset=".1"/>
      <stop stop-opacity="0" offset=".7036"/>
      <stop stop-opacity=".1" offset=".8975"/>
      <stop stop-opacity=".2" offset="1"/>
    </linearGradient>
    <linearGradient id="linearGradient6" x1="140" x2="140" y1="12" y2="240" gradientUnits="userSpaceOnUse">
      <stop stop-color="#83a598" offset="0"/>
      <stop stop-color="#458588" offset="1"/>
    </linearGradient>
    <linearGradient id="_lgradient_26" x2="0" y2="1" gradientTransform="matrix(145 0 0 145 55.5 54.21)" gradientUnits="userSpaceOnUse">
      <stop stop-color="#3c3836" offset="0"/>
      <stop stop-color="#282828" offset="1"/>
    </linearGradient>
    <linearGradient id="linearGradient9" x1="128" x2="128" y1="231.8" y2="21.75" gradientUnits="userSpaceOnUse">
      <stop stop-color="#458588" offset="0"/>
      <stop stop-color="#83a598" offset="1"/>
    </linearGradient>
  </defs>
  <path d="m165 12c72 0 85 15 85 87v56c0 70-13 85-85 85h-74c-72 0-85-15-85-85v-56c0-72 13-87 85-87z" fill="url(#linearGradient6)" style="isolation:isolate"/>
  <g transform="matrix(1.086 0 0 1.086 -10.95 -11.61)" style="isolation:isolate">
    <g fill="#282828" filter="url(#dC4AocOPUwbtBHRlXSzzLUSj6iBSRUWQ)" opacity=".3">
      <path d="m127.2 58-0.0607 0.04044c-39.78 0.4412-71.68 32.57-71.68 72.46 0 40.16 32.33 72.5 72.5 72.5 39.56 0 71.45-31.38 72.4-70.7 0 0 0.0627-1.239 0.091-1.8v-56.96c0-8.607-6.929-15.54-15.54-15.54h-56.96z" fill="#282828"/>
    </g>
    <path d="m127.2 54.21-0.0607 0.04044c-39.78 0.4412-71.68 32.57-71.68 72.46 0 40.16 32.33 72.5 72.5 72.5 39.56 0 71.45-31.38 72.4-70.7 0 0 0.0627-1.239 0.091-1.8v-56.96c0-8.607-6.929-15.54-15.54-15.54h-56.96z" fill="url(#_lgradient_26)"/>
    <g opacity=".2">
      <path d="m127.2 54.21-0.0607 0.04046c-39.78 0.4412-71.68 32.57-71.68 72.45 0 0.2923 0.02895 0.5768 0.04552 0.8648 0.9066-39.08 32.43-70.3 71.64-70.73l0.0607-0.04046 5e-3 -0.0051h57.72c8.607 0 15.54 6.929 15.54 15.54v-2.589c0-8.607-6.929-15.53-15.54-15.53h-57.72z" fill="#ebdbb2"/>
    </g>
    <circle cx="128" cy="126.7" r="51.79" fill="url(#linearGradient9)" vector-effect="non-scaling-stroke"/>
    <path d="m135.1 105.8c-0.2484 2.922-2.2 1.682-4.312 3.276-0.5699-0.0873-1.22-0.0873-2.112-0.0873-0.1613-1.948 0.4898-2.302 0.8114-2.656 1.301-1.063 2.2-0.531 2.2-0.531 0.9739-0.1794 1.865 0.0873 3.414-1e-3zm4.875-4.783h-2.843v-0.7966h-1.543v0.4413c-0.1671 0.0873-0.3284 0.2668-0.4898 0.3541h-0.1613c-2.689-2.302-2.849 2.392-4.64 1.329-0.1613-0.9748-0.0802-1.861-0.0802-3.012 3.091-0.0898 1.951-0.9748 1.06-2.125-0.3215-0.4438-0.4898-1.152-0.5699-1.594-0.7302-2.918-3.739-4.689-8.125-2.83-2.849 1.151-2.112 5.314-1.871 8.148-0.1613 0.2643-0.4898 0.1771-0.7312 0.1771-3.091 0.1771-4.472 3.717-5.123 6.552 0.1613 2.569-0.1613 5.403-0.5699 7.881-0.4086 2.479-1.22 4.428-1.301 6.818-0.1613 2.125 0.5699 4.605 0.4086 6.553-1.71 5.491-2.931 9.121-3.822 14.97-0.65 1.328-2.924 4.161-3.822 4.782-0.2414 0.4413 0.1613 1.417-0.2414 2.036-0.7312 1.151-1.871 1.771-2.521 3.012 0.1613 0.2643-0.9784 0.531-0.8915 0.9748 0.0802 0.4413 0.65 1.592 0.8915 1.859 0.0802 0.1771 0.8915-0.2667 0.8915 0 0.3284 1.061 1.06 3.276 1.871 3.807 3.581 0.4412 3.581 0.4412 5.042 0 0.8114-2.569-2.762-1.417-2.441-4.872 4.882-1.061 6.423-2.568 8.375-8.146 0.8915-4.074 2.112-8.058 3.982-11.95 0.3215-0.2643 0.2415-0.9736 0.8114-1.24 2.193 3.984 6.182 6.82 8.128 10.98 0.4898 5.401 1.468 8.323 3.171 9.298 0.4086 0.177 0 1.859 0.3285 2.213 0 0.531 0.1613 1.151-0.0802 1.771-0.1671 0.4438-0.0801 0.9748-0.0801 1.417v0.531c0.0801 0.8003 0.2415 0.8003 0.9727 1.417 2.112 1.505 4.962 3.897 7.804 2.125 1.301-2.305-1.461-5.224-3.412-6.73-0.65-0.531-1.79-1.859-1.63-2.745 1.06-1.152 1.79-6.199 1.381-10.1-0.1613-0.8838-0.3215-1.771-0.65-2.479-0.9727-2.036-3.165-4.87-5.035-6.906 0.2415-0.2643 0.5699-0.6208 0.9727-0.7978 0-1.947-0.7312-2.568-1.703-3.984-0.8182-1.417-2.682-4.161-4.07-5.047 0 0 0-0.0898-1.381-0.0898-0.0802-0.9735 0.1671-1.771 0.4086-2.834 0-0.7966 0.5699-0.3528 0.7312-2.125 0.4086-1.505 0.2415-0.6196 0.5699-2.124 0.3215-0.708 0.4898-1.417 0.4898-2.569 1.214 0.4438 3.654 0.3541 4.714 0l0.2415 0.1771c0.3284 0.0898 0.4085-0.4413 0.65-0.5298 1.871-1.065 2.521-2.923 4.064-3.1 0 0 0.8182-0.4438 2.031 0 0.4898 0 0.8984 0.0873 0.8984-0.4438 0.0802-0.7966 0.0802-1.415 0.4898-1.948 0.3215 2.125 1.214 4.518 2.843 6.82l1.624-1.237c-1.543-2.036-2.514-4.338-2.682-6.996 0.0801 0.177 0.1671 0.354 0.3285 0.531 0.5699 0 0.8915-1.329 1.543-1.24 0.0801-0.1771 0.2484-0.9748 0.4085-1.594h6.095l2.19-0.5282v-1.24l-1.623-0.177v-1.417h-0.4085v-1.594h-0.9727v1.506l-2.521-0.1771v-0.9748h-0.9727v0.885l-2.601-0.2643v-1.329h-0.9784v1.24l-3.822-0.2643v-0.44h3e-3z" fill="#282828" fill-rule="evenodd" opacity=".3" style="isolation:isolate"/>
    <path d="m135.1 104.2c-0.2484 2.922-2.2 1.682-4.312 3.276-0.5699-0.0873-1.22-0.0873-2.112-0.0873-0.1613-1.948 0.4898-2.302 0.8114-2.656 1.301-1.063 2.2-0.531 2.2-0.531 0.9739-0.1794 1.865 0.0873 3.414-1e-3zm4.875-4.783h-2.843v-0.7966h-1.543v0.4413c-0.1671 0.08726-0.3284 0.2667-0.4898 0.354h-0.1613c-2.689-2.302-2.849 2.392-4.64 1.329-0.1613-0.9748-0.0802-1.861-0.0802-3.012 3.091-0.08985 1.951-0.9748 1.06-2.125-0.3215-0.4438-0.4898-1.152-0.5699-1.594-0.7302-2.918-3.739-4.689-8.125-2.83-2.849 1.151-2.112 5.314-1.871 8.148-0.1613 0.2643-0.4898 0.1771-0.7312 0.1771-3.091 0.1771-4.472 3.717-5.123 6.552 0.1613 2.569-0.1613 5.403-0.5699 7.881-0.4086 2.479-1.22 4.428-1.301 6.818-0.1613 2.125 0.5699 4.605 0.4086 6.553-1.71 5.491-2.931 9.121-3.822 14.97-0.65 1.328-2.924 4.161-3.822 4.782-0.2414 0.4413 0.1613 1.417-0.2414 2.036-0.7312 1.151-1.871 1.771-2.521 3.012 0.1613 0.2643-0.9784 0.531-0.8915 0.9748 0.0802 0.4413 0.65 1.592 0.8915 1.859 0.0802 0.1771 0.8915-0.2667 0.8915 0 0.3284 1.061 1.06 3.276 1.871 3.807 3.581 0.4412 3.581 0.4412 5.042 0 0.8114-2.569-2.762-1.417-2.441-4.872 4.882-1.061 6.423-2.568 8.375-8.146 0.8915-4.074 2.112-8.058 3.982-11.95 0.3215-0.2643 0.2415-0.9736 0.8114-1.24 2.193 3.984 6.182 6.82 8.128 10.98 0.4898 5.401 1.468 8.323 3.171 9.298 0.4086 0.177 0 1.859 0.3285 2.213 0 0.531 0.1613 1.151-0.0802 1.771-0.1671 0.4438-0.0801 0.9748-0.0801 1.417v0.531c0.0801 0.8003 0.2415 0.8003 0.9727 1.417 2.112 1.505 4.962 3.897 7.804 2.125 1.301-2.305-1.461-5.224-3.412-6.73-0.65-0.531-1.79-1.859-1.63-2.745 1.06-1.152 1.79-6.199 1.381-10.1-0.1613-0.8838-0.3215-1.771-0.65-2.479-0.9727-2.036-3.165-4.87-5.035-6.906 0.2415-0.2643 0.5699-0.6208 0.9727-0.7978 0-1.947-0.7312-2.568-1.703-3.984-0.8182-1.417-2.682-4.161-4.07-5.047 0 0 0-0.0898-1.381-0.0898-0.0802-0.9735 0.1671-1.771 0.4086-2.834 0-0.7966 0.5699-0.3528 0.7312-2.125 0.4086-1.505 0.2415-0.6196 0.5699-2.124 0.3215-0.708 0.4898-1.417 0.4898-2.569 1.214 0.4438 3.654 0.3541 4.714 0l0.2415 0.1771c0.3284 0.0898 0.4085-0.4413 0.65-0.5298 1.871-1.065 2.521-2.923 4.064-3.1 0 0 0.8182-0.4438 2.031 0 0.4898 0 0.8984 0.0873 0.8984-0.4438 0.0802-0.7966 0.0802-1.415 0.4898-1.948 0.3215 2.125 1.214 4.518 2.843 6.82l1.624-1.237c-1.543-2.036-2.514-4.338-2.682-6.996 0.0801 0.177 0.1671 0.354 0.3285 0.531 0.5699 0 0.8915-1.329 1.543-1.24 0.0801-0.1771 0.2484-0.9748 0.4085-1.594h6.095l2.19-0.5282v-1.24l-1.623-0.177v-1.417h-0.4085v-1.594h-0.9727v1.506l-2.521-0.1771v-0.9748h-0.9727v0.885l-2.601-0.2643v-1.329h-0.9784v1.24l-3.822-0.2643v-0.44h3e-3z" fill="#282828" fill-rule="evenodd"/>
  </g>
  <path d="m91 12c-72 0-85 15-85 87v56c0 70 13 85 85 85h74c72 0 85-15 85-85v-56c0-72-13-87-85-87zm0 4h74c68 0 80 15 80 83v56c0 66-12 81-80 81h-74c-68 0-80-15-80-81v-56c0-68 12-83 80-83z" fill="url(#linearGradient31)" style="isolation:isolate"/>
</svg>
